X:1
T:Engedi, 86.886
T:Engedi, 86.886
T:Samuel Sebastian Wesley, 1872
T:Public Domain Courtesy of the Cyber Hymnal™
C:Samuel Sebastian Wesley, 1872
Z:Public Domain
Z:Courtesy of the Cyber Hymnal™
%%score ( 1 2 ) ( 3 4 )
L:1/8
Q:1/4=113
M:none
K:F
V:1 treble 
V:2 treble 
V:3 bass 
V:4 bass 
V:1
 [CF]2 | [DG]2 [Cc]2 [CA]2 [EG]2 | F2 (GF) [CE]2 [A,F]2 | [CG]2 [Ec]2 [FA]2 (GF) | [Ec]6 [CE]2 | %5
 F2 [CG]2 [FA]2 [FB]2 | [GB]2 [FA]2 [EG]2 [EG]2 | [FA]2 [EB]2 [Fc]2 [Dd]2 | %8
 [Ed]2 [E^c]2 [Fd]2 [Fd]2 | [EG]2 [Fc]2 c3 z B | [FA]6 |] %11
V:2
 x2 | x8 | F2 D2 x4 | x6 F2 | x8 | F2 x6 | x8 | x8 | x8 | x4 F2 E2 x | x6 |] %11
V:3
 [F,A,]2 | [F,B,]2 [E,G,]2 [F,A,]2 [C,C]2 | [D,A,]2 (B,A,) [C,G,]2 [D,F,]2 | %3
 [E,C]2 [C,C]2 C2 [D,=B,]2 | [C,C]6 [C,C]2 | [D,A,]2 [E,C]2 [F,C]2 [D,D]2 | %6
 [E,C]2 [F,C]2 [C,C]2 [C,C]2 | [F,C]2 [G,C]2 [A,C]2 [F,A,]2 | A,2 A,2 [D,A,]2 [B,,B,]2 | %9
 [C,B,]2 [C,A,]2 [C,G,]3 [C,C] x | [F,,C]6 |] %11
V:4
 x2 | x8 | x2 B,,2 x4 | x4 (F,E,) x2 | x8 | x8 | x8 | x8 | A,2 A,2 x4 | x9 | x6 |] %11

